X: 3827
T: Black Ewe's Cascade
R: jig
M: 6/8
K: Amixolydian
e|ABd e2A|dBA A<AB|GAB g2e|ded BGB|
ABd e2A|dBA A<Aa|geg dBd|e2A A<A:|
|:B|A<Aa aga|ecA A<AB|GAB g2e|ded BGB|
[1 A<Aa aga|ecA A<AB|G<Gg dBd|e2A A<A:|
[2 A<Aa aga|ede g2a|geg dBd|e2A A<A||

